<?xml version="1.0" encoding="UTF-8"?>
<map version="1.10" tiledversion="1.11.2" orientation="orthogonal" renderorder="right-down" width="25" height="15" tilewidth="32" tileheight="32" infinite="0" nextlayerid="4" nextobjectid="46">
 <tileset firstgid="1" source="labirintoteste.tsx"/>
 <tileset firstgid="50" source="grama.tsx"/>
 <layer id="1" name="Fundo" width="25" height="15">
  <data encoding="csv">
9,9,9,9,9,9,9,9,9,9,9,9,9,9,9,9,9,9,9,9,9,9,9,9,9,
9,100,100,100,9,9,9,100,9,100,9,9,100,100,100,100,100,100,100,100,9,69,69,69,69,
9,100,9,100,9,9,9,100,9,100,100,100,100,9,9,9,9,9,100,9,9,69,9,69,9,
9,100,9,100,9,9,9,100,9,100,9,9,9,100,9,9,9,9,100,9,9,69,9,69,9,
9,100,9,100,100,100,100,100,100,100,9,69,9,100,100,100,100,100,100,9,9,69,9,9,9,
9,100,9,9,9,9,9,9,9,69,9,69,9,9,9,9,9,69,9,9,9,69,69,9,9,
9,100,100,100,100,100,100,100,9,69,9,69,69,69,69,69,9,69,9,9,9,9,69,9,9,
9,100,9,100,9,100,9,100,9,69,9,9,9,9,9,69,9,69,69,69,69,9,69,9,9,
9,100,9,100,9,100,9,100,9,69,69,69,69,69,9,69,9,9,9,9,69,9,69,9,9,
9,100,9,100,9,100,9,100,9,69,69,69,69,69,9,69,69,69,69,9,69,9,69,9,9,
9,100,9,100,9,100,9,100,9,9,9,9,69,69,9,9,9,9,69,9,69,9,69,9,9,
9,100,9,100,9,100,9,100,100,100,100,9,69,69,69,69,69,9,69,9,69,9,69,9,9,
9,100,9,100,9,9,9,9,9,9,100,9,9,9,9,9,9,9,69,9,9,9,69,9,9,
9,100,9,100,100,100,100,100,100,9,100,100,100,100,69,69,69,69,69,69,69,69,69,9,9,
9,100,9,9,9,9,9,9,9,9,9,9,9,9,9,9,9,9,9,9,9,9,9,9,9
</data>
 </layer>
 <layer id="2" name="Camada de Blocos 2" width="25" height="15">
  <data encoding="csv">
0,0,0,0,0,0,0,0,0,0,0,0,0,0,0,0,0,0,0,0,0,0,0,0,0,
0,0,0,0,0,0,0,0,0,0,0,0,0,0,0,0,0,0,0,0,0,0,0,0,0,
0,0,0,0,0,0,0,0,0,0,0,0,0,0,0,0,0,0,0,0,0,0,0,0,0,
0,0,0,0,0,0,0,0,0,0,0,0,0,0,0,0,0,0,0,0,0,0,0,0,0,
0,0,0,0,0,0,0,0,0,0,0,0,0,0,0,0,0,0,0,0,0,0,0,0,0,
0,0,0,0,0,0,0,0,0,0,0,0,0,0,0,0,0,0,0,0,0,0,0,0,0,
0,0,0,0,0,0,0,0,0,0,0,0,0,0,0,0,0,0,0,0,0,0,0,0,0,
0,0,0,0,0,0,0,0,0,0,0,0,0,0,0,0,0,0,0,0,0,0,0,0,0,
0,0,0,0,0,0,0,0,0,0,0,0,0,0,0,0,0,0,0,0,0,0,0,0,0,
0,0,0,0,0,0,0,0,0,0,0,0,0,0,0,0,0,0,0,0,0,0,0,0,0,
0,0,0,0,0,0,0,0,0,0,0,0,0,0,0,0,0,0,0,0,0,0,0,0,0,
0,0,0,0,0,0,0,0,0,0,0,0,0,0,0,0,0,0,0,0,0,0,0,0,0,
0,0,0,0,0,0,0,0,0,0,0,0,0,0,0,0,0,0,0,0,0,0,0,0,0,
0,0,0,0,0,0,0,0,0,0,0,0,0,0,0,0,0,0,0,0,0,0,0,0,0,
0,0,0,0,0,0,0,0,0,0,0,0,0,0,0,0,0,0,0,0,0,0,0,0,0
</data>
 </layer>
 <objectgroup id="3" name="Colisao">
  <object id="3" x="2" y="-2" width="19" height="470"/>
  <object id="4" x="20" y="-1" width="10" height="471"/>
  <object id="5" x="7" y="470" width="23" height="9"/>
  <object id="6" x="29" y="0" width="453" height="31"/>
  <object id="7" x="483" y="2" width="317" height="29"/>
  <object id="8" x="769" y="64" width="32" height="415"/>
  <object id="9" x="705" y="62" width="28" height="97"/>
  <object id="10" x="738" y="133" width="30" height="345"/>
  <object id="11" x="65" y="225" width="32" height="255"/>
  <object id="12" x="98" y="450" width="639" height="29"/>
  <object id="13" x="130" y="226" width="29" height="188"/>
  <object id="14" x="193" y="225" width="29" height="190"/>
  <object id="15" x="161" y="385" width="29" height="30"/>
  <object id="16" x="226" y="387" width="92" height="26"/>
  <object id="17" x="289" y="414" width="30" height="35"/>
  <object id="18" x="64" y="63" width="33" height="129"/>
  <object id="19" x="99" y="160" width="188" height="33"/>
  <object id="20" x="255" y="192" width="30" height="159"/>
  <object id="21" x="287" y="318" width="98" height="34"/>
  <object id="22" x="351" y="352" width="32" height="62"/>
  <object id="23" x="385" y="385" width="191" height="30"/>
  <object id="24" x="545" y="322" width="31" height="61"/>
  <object id="25" x="447" y="321" width="97" height="30"/>
  <object id="26" x="446" y="225" width="33" height="93"/>
  <object id="27" x="321" y="222" width="124" height="29"/>
  <object id="28" x="320" y="252" width="129" height="6"/>
  <object id="29" x="318" y="95" width="31" height="125"/>
  <object id="30" x="349" y="94" width="67" height="33"/>
  <object id="31" x="384" y="128" width="34" height="62"/>
  <object id="32" x="418" y="159" width="124" height="31"/>
  <object id="33" x="447" y="63" width="130" height="63"/>
  <object id="34" x="415" y="63" width="33" height="32"/>
  <object id="35" x="322" y="33" width="59" height="30"/>
  <object id="36" x="256" y="30" width="33" height="96"/>
  <object id="37" x="129" y="30" width="95" height="97"/>
  <object id="38" x="513" y="191" width="32" height="98"/>
  <object id="39" x="548" y="255" width="90" height="31"/>
  <object id="40" x="608" y="286" width="31" height="128"/>
  <object id="41" x="639" y="381" width="63" height="33"/>
  <object id="42" x="674" y="193" width="31" height="188"/>
  <object id="43" x="609" y="66" width="64" height="157"/>
  <object id="44" x="577" y="162" width="29" height="59"/>
  <object id="45" x="640" y="32" width="31" height="31"/>
 </objectgroup>
</map>
